X:198
U: ~ = !turn!
%%topmargin 3cm
T:Sonny Brogan's
B:Traditional Irish Fiddle Tunes. Randy Miller and Jack Perron.
Z:Transcribed by Ralph Palmer
S:Andy McGann
R:Jig
L:1/8
M:6/8
K:D
~E3 ~B3 | cBA B2 E | ~E3 ~B3 | cBA FED |
~E3 ~B3 | cBA Bcd | edc dcB | cBA FED ::
Eec d2 B | cBA Bcd | Eec d2 B | cBA FED |
Eec d2 B | cBA Bcd | edc dcB | cBA FED :|]
